icons/svg/content-save-all.svg

﻿<?xml version="1.0" encoding="utf-8"?>
<!DOCTYPE svg PUBLIC "-//W3C//DTD SVG 1.1//EN" "http://www.w3.org/Graphics/SVG/1.1/DTD/svg11.dtd">
<svg xmlns="http://www.w3.org/2000/svg" xmlns:xlink="http://www.w3.org/1999/xlink" version="1.1" baseProfile="full" width="24" height="24" viewBox="0 0 24.00 24.00" enable-background="new 0 0 24.00 24.00" xml:space="preserve">
	<path fill="#000000" fill-opacity="1" stroke-width="0.2" stroke-linejoin="round" d="M 17,7L 17,3L 7,3L 7,7L 17,7 Z M 14,17C 15.66,17 17,15.66 17,14C 17,12.34 15.66,11 14,11C 12.34,11 11,12.34 11,14C 11,15.66 12.34,17 14,17 Z M 19,1L 23,5L 23,17C 23,18.1 22.1,19 21,19L 7,19C 5.89,19 5,18.1 5,17L 5,3C 5,1.9 5.89,1 7,1L 19,1 Z M 1.00002,7.00002L 3.00002,7.00002L 3,21L 17,21L 17,23L 3,23C 1.9,23 1.00001,22.1 1.00001,21L 1.00002,7.00002 Z "/>
</svg>

<svg xmlns="http://www.w3.org/2000/svg" version="1.1" baseProfile="full" width="24" height="24" viewBox="0 0 24.00 24.00" xml:space="preserve"><path fill="#000" fill-opacity="1" stroke-width=".2" stroke-linejoin="round" d="M17 7V3H7v4h10zm-3 10c1.66 0 3-1.34 3-3s-1.34-3-3-3-3 1.34-3 3 1.34 3 3 3zm5-16l4 4v12c0 1.1-.9 2-2 2H7c-1.11 0-2-.9-2-2V3c0-1.1.89-2 2-2h12zM1 7h2v14h14v2H3c-1.1 0-2-.9-2-2V7z"/></svg>
